!!!COM: Mozart
!!!OTL: 8 Variationen uber das Lied "Ein Weib ist das herrlichste Ding"
!!!Variation: Theme b
**function	**harm	**kern	**kern
*	*	*clefF4	*clefG2
*	*	*k[b-]	*k[b-]
*M3/4	*M3/4	*M3/4	*M3/4
*F:	*F:	*F:	*F:
4T	4V	4r	4c
=9	=9	=9	=9
*	*	*	*^
2.T	2.I	2F	(4f	2A
.	.	.	4c)	.
.	.	4r	4f	4r
=10	=10	=10	=10	=10
2.T	2.V	2C	(4g	4e
.	.	.	4c)	4r
*	*	*	*v	*v
.	.	4r	4g
=11	=11	=11	=11
4T	4I	(4F	(4a
4T	4vi	4D	4f)
*	*	*	*^
4T	4iib	4BB-)	4g	4b-
=12	=12	=12	=12	=12
4T	4Cc	2C	(4f	4a
2T	2V	.	4e)	4g
*	*	*	*v	*v
.	.	4r	4cc
=13	=13	=13	=13
4T	4Ib	(4A 4f	(4cc
4T	4viiob	4G 4e	4b-
4T	4I	4F) 4f	4a)
=14	=14	=14	=14
2P	2IV	4B-	(4f 4dd
.	.	4r	4d) 4b-
4P	4iib	4BB-	4B- 4g
=15	=15	=15	=15
*	*	*^	*
4D	4Cc	(4A	4C	(4f
2D	2V7	4B-)	4r	4g)
.	.	4G	4C	4e'
=16	=16	=16	=16	=16
2T	2I	4A	4F	4f'
*	*	*v	*v	*
.	.	4FF	4r
*-	*-	*-	*-
